Newaita-dark/apps/22/deadbeef.svg

<svg height="22pt" viewBox="0 0 22 22" width="22pt" xmlns="http://www.w3.org/2000/svg" xmlns:xlink="http://www.w3.org/1999/xlink"><linearGradient id="a"><stop offset="0" stop-opacity=".313725"/><stop offset=".222222" stop-opacity=".27451"/><stop offset="1" stop-opacity="0"/></linearGradient><radialGradient id="b" cx="450.90894" cy="189.57936" gradientTransform="matrix(.00000012 -.0537161 -.0966889 -.00000007 22.878135 43.721792)" gradientUnits="userSpaceOnUse" r="21.166656" xlink:href="#a"/><radialGradient id="c" cx="450.90894" cy="189.57936" gradientTransform="matrix(-.00000012 .0537161 .0966889 .00000007 -13.327416 -5.175142)" gradientUnits="userSpaceOnUse" r="21.166656" xlink:href="#a"/><radialGradient id="d" cx="450.90894" cy="189.57936" gradientTransform="matrix(-.00000012 -.0537161 .0966889 -.00000007 -13.327416 43.721792)" gradientUnits="userSpaceOnUse" r="21.166656" xlink:href="#a"/><radialGradient id="e" cx="450.90894" cy="189.57936" gradientTransform="matrix(.00000012 .0537161 -.0966889 .00000007 22.878134 -5.175142)" gradientUnits="userSpaceOnUse" r="21.166656" xlink:href="#a"/><linearGradient id="f" gradientUnits="userSpaceOnUse" x1="10.9151166" x2="10.9151166" y1="19.27333515" y2="1.99106705676"><stop offset="0" stop-color="#424242"/><stop offset="1" stop-color="#616161"/></linearGradient><linearGradient id="g" gradientUnits="userSpaceOnUse" x1="9.09592" x2="9.09592" y1="6.08423928519" y2="15.18016042218"><stop offset="0" stop-color="#9ccc65"/><stop offset="1" stop-color="#aed581"/></linearGradient><path d="m4.773438 19.273438h1.820312v-.910157h-1.820312zm0 0" fill="url(#b)"/><path d="m4.773438 19.273438h-1.816407v.910156h1.816407zm0 0" fill="url(#c)"/><path d="m4.773438 19.273438h-1.816407v-.910157h1.816407zm0 0" fill="url(#d)"/><path d="m4.773438 19.273438h1.820312v.910156h-1.820312zm0 0" fill="url(#e)"/><path d="m5.007812 1.992188c-.0625 0-.121093.003906-.179687.011718-.007813 0-.019531 0-.027344.003906-.003906 0-.011719 0-.015625 0s-.007812 0-.011718.003907c-.59375.097656-1.050782.578125-1.125 1.175781 0 .011719-.003907.019531-.003907.027344-.003906.058594-.007812.117187-.007812.175781v14.519531.007813c-.003907.242187.054687.492187.183593.71875.378907.652343 1.210938.875 1.867188.5l12.601562-7.277344c.445313-.257813.691407-.726563.683594-1.203125.007813-.480469-.238281-.949219-.683594-1.203125l-12.550781-7.246094c-.148437-.097656-.316406-.164062-.5-.195312-.011719-.003907-.019531-.003907-.03125-.003907-.066406-.011718-.132812-.015624-.199219-.015624zm0 0" fill="url(#f)"/><path d="m5.007812 1.992188c-.0625 0-.121093.003906-.179687.011718-.007813 0-.019531 0-.027344.003906-.003906 0-.011719 0-.015625 0s-.007812 0-.011718.003907c-.59375.097656-1.050782.578125-1.125 1.175781 0 .011719-.003907.019531-.003907.027344-.003906.058594-.007812.117187-.007812.175781v.167969c.003906-.039063.003906-.074219.007812-.113282 0-.011718.003907-.019531.003907-.027343.074218-.601563.53125-1.078125 1.125-1.179688.003906 0 .007812 0 .011718-.003906h.015625c.007813-.003906.019531-.003906.027344-.003906.058594-.007813.117187-.011719.179687-.011719.066407 0 .132813.003906.199219.015625.011719 0 .019531.003906.03125.003906.183594.03125.351563.097657.5.195313l12.550781 7.246094c.410157.238281.652344.652343.679688 1.089843.003906-.039062.003906-.078125.003906-.113281.007813-.480469-.238281-.949219-.683594-1.203125l-12.550781-7.246094c-.148437-.097656-.316406-.164062-.5-.195312-.011719-.003907-.019531-.003907-.03125-.003907-.066406-.011718-.132812-.015624-.199219-.015624zm-1.371093 15.9375v.046874zm0 0" fill="#fff" fill-opacity=".392157"/><path d="m3.636719 3.332031v.058594zm15.324219 7.117188c-.054688.402343-.289063.777343-.671876 1l-12.601562 7.273437c-.65625.378906-1.488281.15625-1.867188-.496094-.117187-.210937-.179687-.4375-.183593-.660156v.34375.007813c-.003907.242187.054687.492187.183593.71875.378907.652343 1.210938.875 1.867188.5l12.601562-7.277344c.445313-.257813.691407-.726563.683594-1.203125 0-.070312-.003906-.140625-.011718-.207031zm-15.324219 7.050781v.019531c0-.003906 0-.007812 0-.011719 0-.003906 0-.007812 0-.007812zm0 0" fill-opacity=".235294"/><path d="m5.007812 1.925781c-.0625 0-.125.003907-.1875.011719-.011718 0-.019531.003906-.03125.003906-.003906 0-.007812.003906-.011718.003906s-.011719 0-.015625 0c-.621094.105469-1.101563.605469-1.175781 1.234376-.003907.011718-.003907.019531-.003907.03125-.007812.058593-.007812.121093-.007812.179687v14.519531.007813c-.007813.253906.054687.511719.191406.75.394531.683593 1.269531.917969 1.953125.523437l12.601562-7.277344c.46875-.269531.722657-.757812.714844-1.257812.007813-.503906-.246094-.992188-.714844-1.261719l-12.546874-7.242187c-.15625-.101563-.332032-.171875-.523438-.203125-.011719-.003907-.023438-.003907-.03125-.007813-.070312-.007812-.140625-.015625-.210938-.015625zm0 .128907c.0625 0 .125.003906.191407.015624.007812 0 .019531.003907.027343.003907.175782.03125.335938.09375.480469.1875l12.550781 7.246093c.425782.246094.65625.691407.648438 1.144532v.003906c.007812.457031-.222656.902344-.648438 1.144531l-12.605468 7.277344c-.625.363281-1.414063.148437-1.773438-.476563-.125-.214843-.183594-.449218-.175781-.683593 0-.003907 0-.007813 0-.007813v-14.523437c0-.054688 0-.109375.007813-.164063 0-.007812 0-.015625 0-.027344.070312-.570312.507812-1.027343 1.070312-1.121093.007812 0 .011719 0 .015625-.003907h.011719c.007812 0 .019531-.003906.027344-.003906.058593-.007812.113281-.011718.171874-.011718zm0 0" fill="#212121"/><path d="m7.050781 6.078125c-.003906 0-.011719 0-.015625 0-.152344.003906-.300781.085937-.382812.230469-.054688.089844-.070313.191406-.058594.289062v3.5c-.019531.097656-.003906.203125.050781.296875l.015625.027344c.105469.183594.320313.257813.519532.195313.050781-.015626.097656-.039063.140624-.070313l2.882813-1.664063 3.027344 1.75-6.414063 3.703126c-.214844.125-.289062.402343-.164062.621093s.402344.292969.621094.167969l7.089843-4.09375c.148438-.085938.226563-.242188.226563-.398438 0-.160156-.078125-.3125-.226563-.398437l-7.042969-4.066406c-.046874-.03125-.097656-.058594-.152343-.070313-.035157-.011718-.078125-.015625-.117188-.019531zm0 0" fill="url(#g)"/><path d="m7.050781 6.078125c-.003906 0-.011719 0-.015625 0-.152344.003906-.300781.085937-.382812.230469-.054688.089844-.070313.191406-.058594.289062v.132813c.007812-.058594.027344-.113281.058594-.164063.082031-.144531.230468-.226562.382812-.230468h.015625c.039063.003906.082031.007812.117188.019531.054687.011719.105469.039062.152343.070312l7.042969 4.066407c.105469.0625.179688.160156.207031.269531.015626-.042969.019532-.085938.019532-.128907 0-.160156-.078125-.3125-.226563-.398437l-7.042969-4.066406c-.046874-.03125-.097656-.058594-.152343-.070313-.035157-.011718-.078125-.015625-.117188-.019531zm-.457031 4.019531c-.011719.054688-.011719.109375 0 .167969zm6.414062.664063-6.191406 3.574219c-.183594.105468-.265625.324218-.207031.523437.03125-.109375.101563-.207031.207031-.265625l6.414063-3.703125zm0 0" fill="#fff" fill-opacity=".392157"/><path d="m6.59375 6.855469c-.003906.042969-.003906.085937 0 .125zm3.609375 2.027343-2.882813 1.664063c-.042968.03125-.089843.054687-.140624.070313-.199219.0625-.414063-.011719-.519532-.195313l-.015625-.027344c-.023437-.039062-.042969-.085937-.050781-.128906v.214844c-.019531.101562-.003906.207031.050781.300781l.015625.023438c.105469.183593.320313.257812.519532.195312.050781-.011719.097656-.035156.140624-.066406l2.882813-1.664063 2.695313 1.554688.332031-.191407zm4.347656 1.941407c-.039062.082031-.101562.15625-.1875.207031l-7.089843 4.09375c-.21875.125-.496094.050781-.621094-.167969-.007813-.011719-.015625-.023437-.019532-.035156-.0625.128906-.058593.285156.019532.417969.125.21875.402344.292968.621094.167968l7.089843-4.09375c.148438-.085937.226563-.238281.226563-.398437 0-.066406-.011719-.132813-.039063-.191406zm0 0" fill-opacity=".235294"/><path d="m164.075241-73.558961c-.090901 0-.272702 0-.363602 0-3.545116.0909-6.999332 1.999809-8.90824 5.363124-1.272606 2.090709-1.636208 4.45412-1.363506 6.72663v81.446768c-.454502 2.27251-.090901 4.726821 1.181705 6.908431l.363602.636303c2.454311 4.272319 7.453833 5.999427 12.089754 4.54502 1.181706-.363601 2.27251-.909004 3.272415-1.636207l67.084503-38.723575 70.447818 40.723384-149.258474 86.173589c-4.999523 2.908813-6.72663 9.362742-3.817817 14.453165s9.362742 6.817531 14.453165 3.908718l164.984245-95.26363c3.454215-1.999809 5.272224-5.635826 5.272224-9.271842 0-3.726917-1.818009-7.272033-5.272224-9.271842l-163.89344-94.627327c-1.090805-.727203-2.27251-1.363506-3.545116-1.636207-.818104-.272702-1.818008-.363602-2.727012-.454502zm0 0" fill="none" stroke="#212121" stroke-linecap="round" stroke-linejoin="round" stroke-width="3" transform="matrix(.0429729 0 0 .0429729 0 9.239163)"/></svg>

<?xml version="1.0" encoding="UTF-8"?>
<svg xmlns="http://www.w3.org/2000/svg" xmlns:xlink="http://www.w3.org/1999/xlink" width="22pt" height="22pt" viewBox="0 0 22 22" version="1.1">
<defs>
<radialGradient id="radial0" gradientUnits="userSpaceOnUse" cx="450.90894" cy="189.57936" fx="450.90894" fy="189.57936" r="21.166656" gradientTransform="matrix(0.000000119742,-0.0537161,-0.0966889,-0.0000000698078,22.878135,43.721792)">
<stop offset="0" style="stop-color:rgb(0%,0%,0%);stop-opacity:0.313725;"/>
<stop offset="0.222222" style="stop-color:rgb(0%,0%,0%);stop-opacity:0.27451;"/>
<stop offset="1" style="stop-color:rgb(0%,0%,0%);stop-opacity:0;"/>
</radialGradient>
<radialGradient id="radial1" gradientUnits="userSpaceOnUse" cx="450.90894" cy="189.57936" fx="450.90894" fy="189.57936" r="21.166656" gradientTransform="matrix(-0.000000119742,0.0537161,0.0966889,0.0000000698078,-13.327416,-5.175142)">
<stop offset="0" style="stop-color:rgb(0%,0%,0%);stop-opacity:0.313725;"/>
<stop offset="0.222222" style="stop-color:rgb(0%,0%,0%);stop-opacity:0.27451;"/>
<stop offset="1" style="stop-color:rgb(0%,0%,0%);stop-opacity:0;"/>
</radialGradient>
<radialGradient id="radial2" gradientUnits="userSpaceOnUse" cx="450.90894" cy="189.57936" fx="450.90894" fy="189.57936" r="21.166656" gradientTransform="matrix(-0.000000119742,-0.0537161,0.0966889,-0.0000000698078,-13.327416,43.721792)">
<stop offset="0" style="stop-color:rgb(0%,0%,0%);stop-opacity:0.313725;"/>
<stop offset="0.222222" style="stop-color:rgb(0%,0%,0%);stop-opacity:0.27451;"/>
<stop offset="1" style="stop-color:rgb(0%,0%,0%);stop-opacity:0;"/>
</radialGradient>
<radialGradient id="radial3" gradientUnits="userSpaceOnUse" cx="450.90894" cy="189.57936" fx="450.90894" fy="189.57936" r="21.166656" gradientTransform="matrix(0.000000119742,0.0537161,-0.0966889,0.0000000698078,22.878134,-5.175142)">
<stop offset="0" style="stop-color:rgb(0%,0%,0%);stop-opacity:0.313725;"/>
<stop offset="0.222222" style="stop-color:rgb(0%,0%,0%);stop-opacity:0.27451;"/>
<stop offset="1" style="stop-color:rgb(0%,0%,0%);stop-opacity:0;"/>
</radialGradient>
<linearGradient id="linear0" gradientUnits="userSpaceOnUse" x1="254" y1="233.5" x2="254" y2="-168.66667" gradientTransform="matrix(0.0429729,0,0,0.0429729,0,9.239163)">
<stop offset="0" style="stop-color:rgb(25.882353%,25.882353%,25.882353%);stop-opacity:1;"/>
<stop offset="1" style="stop-color:rgb(38.039216%,38.039216%,38.039216%);stop-opacity:1;"/>
</linearGradient>
<linearGradient id="linear1" gradientUnits="userSpaceOnUse" x1="740" y1="535.1181" x2="740" y2="1335.1182" gradientTransform="matrix(0.0113699,0,0,0.0113699,0.682194,0)">
<stop offset="0" style="stop-color:rgb(61.176471%,80%,39.607843%);stop-opacity:1;"/>
<stop offset="1" style="stop-color:rgb(68.235294%,83.529412%,50.588235%);stop-opacity:1;"/>
</linearGradient>
</defs>
<g id="surface1">
<path style=" stroke:none;fill-rule:nonzero;fill:url(#radial0);" d="M 4.773438 19.273438 L 6.59375 19.273438 L 6.59375 18.363281 L 4.773438 18.363281 Z M 4.773438 19.273438 "/>
<path style=" stroke:none;fill-rule:nonzero;fill:url(#radial1);" d="M 4.773438 19.273438 L 2.957031 19.273438 L 2.957031 20.183594 L 4.773438 20.183594 Z M 4.773438 19.273438 "/>
<path style=" stroke:none;fill-rule:nonzero;fill:url(#radial2);" d="M 4.773438 19.273438 L 2.957031 19.273438 L 2.957031 18.363281 L 4.773438 18.363281 Z M 4.773438 19.273438 "/>
<path style=" stroke:none;fill-rule:nonzero;fill:url(#radial3);" d="M 4.773438 19.273438 L 6.59375 19.273438 L 6.59375 20.183594 L 4.773438 20.183594 Z M 4.773438 19.273438 "/>
<path style=" stroke:none;fill-rule:nonzero;fill:url(#linear0);" d="M 5.007812 1.992188 C 4.945312 1.992188 4.886719 1.996094 4.828125 2.003906 C 4.820312 2.003906 4.808594 2.003906 4.800781 2.007812 C 4.796875 2.007812 4.789062 2.007812 4.785156 2.007812 C 4.78125 2.007812 4.777344 2.007812 4.773438 2.011719 C 4.179688 2.109375 3.722656 2.589844 3.648438 3.1875 C 3.648438 3.199219 3.644531 3.207031 3.644531 3.214844 C 3.640625 3.273438 3.636719 3.332031 3.636719 3.390625 L 3.636719 17.910156 C 3.636719 17.910156 3.636719 17.914062 3.636719 17.917969 C 3.632812 18.160156 3.691406 18.410156 3.820312 18.636719 C 4.199219 19.289062 5.03125 19.511719 5.6875 19.136719 L 18.289062 11.859375 C 18.734375 11.601562 18.980469 11.132812 18.972656 10.65625 C 18.980469 10.175781 18.734375 9.707031 18.289062 9.453125 L 5.738281 2.207031 C 5.589844 2.109375 5.421875 2.042969 5.238281 2.011719 C 5.226562 2.007812 5.21875 2.007812 5.207031 2.007812 C 5.140625 1.996094 5.074219 1.992188 5.007812 1.992188 Z M 5.007812 1.992188 "/>
<path style=" stroke:none;fill-rule:nonzero;fill:rgb(100%,100%,100%);fill-opacity:0.392157;" d="M 5.007812 1.992188 C 4.945312 1.992188 4.886719 1.996094 4.828125 2.003906 C 4.820312 2.003906 4.808594 2.003906 4.800781 2.007812 C 4.796875 2.007812 4.789062 2.007812 4.785156 2.007812 C 4.78125 2.007812 4.777344 2.007812 4.773438 2.011719 C 4.179688 2.109375 3.722656 2.589844 3.648438 3.1875 C 3.648438 3.199219 3.644531 3.207031 3.644531 3.214844 C 3.640625 3.273438 3.636719 3.332031 3.636719 3.390625 L 3.636719 3.558594 C 3.640625 3.519531 3.640625 3.484375 3.644531 3.445312 C 3.644531 3.433594 3.648438 3.425781 3.648438 3.417969 C 3.722656 2.816406 4.179688 2.339844 4.773438 2.238281 C 4.777344 2.238281 4.78125 2.238281 4.785156 2.234375 C 4.789062 2.234375 4.796875 2.234375 4.800781 2.234375 C 4.808594 2.230469 4.820312 2.230469 4.828125 2.230469 C 4.886719 2.222656 4.945312 2.21875 5.007812 2.21875 C 5.074219 2.21875 5.140625 2.222656 5.207031 2.234375 C 5.21875 2.234375 5.226562 2.238281 5.238281 2.238281 C 5.421875 2.269531 5.589844 2.335938 5.738281 2.433594 L 18.289062 9.679688 C 18.699219 9.917969 18.941406 10.332031 18.96875 10.769531 C 18.972656 10.730469 18.972656 10.691406 18.972656 10.65625 C 18.980469 10.175781 18.734375 9.707031 18.289062 9.453125 L 5.738281 2.207031 C 5.589844 2.109375 5.421875 2.042969 5.238281 2.011719 C 5.226562 2.007812 5.21875 2.007812 5.207031 2.007812 C 5.140625 1.996094 5.074219 1.992188 5.007812 1.992188 Z M 3.636719 17.929688 C 3.636719 17.945312 3.636719 17.960938 3.636719 17.976562 Z M 3.636719 17.929688 "/>
<path style=" stroke:none;fill-rule:nonzero;fill:rgb(0%,0%,0%);fill-opacity:0.235294;" d="M 3.636719 3.332031 C 3.636719 3.351562 3.636719 3.371094 3.636719 3.390625 Z M 18.960938 10.449219 C 18.90625 10.851562 18.671875 11.226562 18.289062 11.449219 L 5.6875 18.722656 C 5.03125 19.101562 4.199219 18.878906 3.820312 18.226562 C 3.703125 18.015625 3.640625 17.789062 3.636719 17.566406 L 3.636719 17.910156 C 3.636719 17.910156 3.636719 17.914062 3.636719 17.917969 C 3.632812 18.160156 3.691406 18.410156 3.820312 18.636719 C 4.199219 19.289062 5.03125 19.511719 5.6875 19.136719 L 18.289062 11.859375 C 18.734375 11.601562 18.980469 11.132812 18.972656 10.65625 C 18.972656 10.585938 18.96875 10.515625 18.960938 10.449219 Z M 3.636719 17.5 L 3.636719 17.519531 C 3.636719 17.515625 3.636719 17.511719 3.636719 17.507812 C 3.636719 17.503906 3.636719 17.5 3.636719 17.5 Z M 3.636719 17.5 "/>
<path style=" stroke:none;fill-rule:nonzero;fill:rgb(12.941176%,12.941176%,12.941176%);fill-opacity:1;" d="M 5.007812 1.925781 C 4.945312 1.925781 4.882812 1.929688 4.820312 1.9375 C 4.808594 1.9375 4.800781 1.941406 4.789062 1.941406 C 4.785156 1.941406 4.78125 1.945312 4.777344 1.945312 C 4.773438 1.945312 4.765625 1.945312 4.761719 1.945312 C 4.140625 2.050781 3.660156 2.550781 3.585938 3.179688 C 3.582031 3.191406 3.582031 3.199219 3.582031 3.210938 C 3.574219 3.269531 3.574219 3.332031 3.574219 3.390625 L 3.574219 17.910156 C 3.574219 17.914062 3.574219 17.914062 3.574219 17.917969 C 3.566406 18.171875 3.628906 18.429688 3.765625 18.667969 C 4.160156 19.351562 5.035156 19.585938 5.71875 19.191406 L 18.320312 11.914062 C 18.789062 11.644531 19.042969 11.15625 19.035156 10.65625 C 19.042969 10.152344 18.789062 9.664062 18.320312 9.394531 L 5.773438 2.152344 C 5.617188 2.050781 5.441406 1.980469 5.25 1.949219 C 5.238281 1.945312 5.226562 1.945312 5.21875 1.941406 C 5.148438 1.933594 5.078125 1.925781 5.007812 1.925781 Z M 5.007812 2.054688 C 5.070312 2.054688 5.132812 2.058594 5.199219 2.070312 C 5.207031 2.070312 5.21875 2.074219 5.226562 2.074219 C 5.402344 2.105469 5.5625 2.167969 5.707031 2.261719 L 18.257812 9.507812 C 18.683594 9.753906 18.914062 10.199219 18.90625 10.652344 L 18.90625 10.65625 C 18.914062 11.113281 18.683594 11.558594 18.257812 11.800781 L 5.652344 19.078125 C 5.027344 19.441406 4.238281 19.226562 3.878906 18.601562 C 3.753906 18.386719 3.695312 18.152344 3.703125 17.917969 C 3.703125 17.914062 3.703125 17.910156 3.703125 17.910156 L 3.703125 3.386719 C 3.703125 3.332031 3.703125 3.277344 3.710938 3.222656 C 3.710938 3.214844 3.710938 3.207031 3.710938 3.195312 C 3.78125 2.625 4.21875 2.167969 4.78125 2.074219 C 4.789062 2.074219 4.792969 2.074219 4.796875 2.070312 C 4.800781 2.070312 4.804688 2.070312 4.808594 2.070312 C 4.816406 2.070312 4.828125 2.066406 4.835938 2.066406 C 4.894531 2.058594 4.949219 2.054688 5.007812 2.054688 Z M 5.007812 2.054688 "/>
<path style=" stroke:none;fill-rule:nonzero;fill:url(#linear1);" d="M 7.050781 6.078125 C 7.046875 6.078125 7.039062 6.078125 7.035156 6.078125 C 6.882812 6.082031 6.734375 6.164062 6.652344 6.308594 C 6.597656 6.398438 6.582031 6.5 6.59375 6.597656 L 6.59375 10.097656 C 6.574219 10.195312 6.589844 10.300781 6.644531 10.394531 L 6.660156 10.421875 C 6.765625 10.605469 6.980469 10.679688 7.179688 10.617188 C 7.230469 10.601562 7.277344 10.578125 7.320312 10.546875 L 10.203125 8.882812 L 13.230469 10.632812 L 6.816406 14.335938 C 6.601562 14.460938 6.527344 14.738281 6.652344 14.957031 C 6.777344 15.175781 7.054688 15.25 7.273438 15.125 L 14.363281 11.03125 C 14.511719 10.945312 14.589844 10.789062 14.589844 10.632812 C 14.589844 10.472656 14.511719 10.320312 14.363281 10.234375 L 7.320312 6.167969 C 7.273438 6.136719 7.222656 6.109375 7.167969 6.097656 C 7.132812 6.085938 7.089844 6.082031 7.050781 6.078125 Z M 7.050781 6.078125 "/>
<path style=" stroke:none;fill-rule:nonzero;fill:rgb(100%,100%,100%);fill-opacity:0.392157;" d="M 7.050781 6.078125 C 7.046875 6.078125 7.039062 6.078125 7.035156 6.078125 C 6.882812 6.082031 6.734375 6.164062 6.652344 6.308594 C 6.597656 6.398438 6.582031 6.5 6.59375 6.597656 L 6.59375 6.730469 C 6.601562 6.671875 6.621094 6.617188 6.652344 6.566406 C 6.734375 6.421875 6.882812 6.339844 7.035156 6.335938 C 7.039062 6.335938 7.046875 6.335938 7.050781 6.335938 C 7.089844 6.339844 7.132812 6.34375 7.167969 6.355469 C 7.222656 6.367188 7.273438 6.394531 7.320312 6.425781 L 14.363281 10.492188 C 14.46875 10.554688 14.542969 10.652344 14.570312 10.761719 C 14.585938 10.71875 14.589844 10.675781 14.589844 10.632812 C 14.589844 10.472656 14.511719 10.320312 14.363281 10.234375 L 7.320312 6.167969 C 7.273438 6.136719 7.222656 6.109375 7.167969 6.097656 C 7.132812 6.085938 7.089844 6.082031 7.050781 6.078125 Z M 6.59375 10.097656 C 6.582031 10.152344 6.582031 10.207031 6.59375 10.265625 Z M 13.007812 10.761719 L 6.816406 14.335938 C 6.632812 14.441406 6.550781 14.660156 6.609375 14.859375 C 6.640625 14.75 6.710938 14.652344 6.816406 14.59375 L 13.230469 10.890625 Z M 13.007812 10.761719 "/>
<path style=" stroke:none;fill-rule:nonzero;fill:rgb(0%,0%,0%);fill-opacity:0.235294;" d="M 6.59375 6.855469 C 6.589844 6.898438 6.589844 6.941406 6.59375 6.980469 Z M 10.203125 8.882812 L 7.320312 10.546875 C 7.277344 10.578125 7.230469 10.601562 7.179688 10.617188 C 6.980469 10.679688 6.765625 10.605469 6.660156 10.421875 L 6.644531 10.394531 C 6.621094 10.355469 6.601562 10.308594 6.59375 10.265625 L 6.59375 10.480469 C 6.574219 10.582031 6.589844 10.6875 6.644531 10.78125 L 6.660156 10.804688 C 6.765625 10.988281 6.980469 11.0625 7.179688 11 C 7.230469 10.988281 7.277344 10.964844 7.320312 10.933594 L 10.203125 9.269531 L 12.898438 10.824219 L 13.230469 10.632812 Z M 14.550781 10.824219 C 14.511719 10.90625 14.449219 10.980469 14.363281 11.03125 L 7.273438 15.125 C 7.054688 15.25 6.777344 15.175781 6.652344 14.957031 C 6.644531 14.945312 6.636719 14.933594 6.632812 14.921875 C 6.570312 15.050781 6.574219 15.207031 6.652344 15.339844 C 6.777344 15.558594 7.054688 15.632812 7.273438 15.507812 L 14.363281 11.414062 C 14.511719 11.328125 14.589844 11.175781 14.589844 11.015625 C 14.589844 10.949219 14.578125 10.882812 14.550781 10.824219 Z M 14.550781 10.824219 "/>
<path style="fill:none;stroke-width:3;stroke-linecap:round;stroke-linejoin:round;stroke:rgb(12.941176%,12.941176%,12.941176%);stroke-opacity:1;stroke-miterlimit:4;" d="M 164.075241 -73.558961 C 163.98434 -73.558961 163.802539 -73.558961 163.711639 -73.558961 C 160.166523 -73.468061 156.712307 -71.559152 154.803399 -68.195837 C 153.530793 -66.105128 153.167191 -63.741717 153.439893 -61.469207 L 153.439893 19.977561 C 152.985391 22.250071 153.348992 24.704382 154.621598 26.885992 L 154.9852 27.522295 C 157.439511 31.794614 162.439033 33.521722 167.074954 32.067315 C 168.25666 31.703714 169.347464 31.158311 170.347369 30.431108 L 237.431872 -8.292467 L 307.87969 32.430917 L 158.621216 118.604506 C 153.621693 121.513319 151.894586 127.967248 154.803399 133.057671 C 157.712212 138.148094 164.166141 139.875202 169.256564 136.966389 L 334.240809 41.702759 C 337.695024 39.70295 339.513033 36.066933 339.513033 32.430917 C 339.513033 28.704 337.695024 25.158884 334.240809 23.159075 L 170.347369 -71.468252 C 169.256564 -72.195455 168.074859 -72.831758 166.802253 -73.104459 C 165.984149 -73.377161 164.984245 -73.468061 164.075241 -73.558961 Z M 164.075241 -73.558961 " transform="matrix(0.0429729,0,0,0.0429729,0,9.239163)"/>
</g>
</svg>
